; G-Code generated by Simplify3D(R) Version 3.0.2
; Oct 2, 2015 at 8:53:25 AM
; Settings Summary
;   processName,Process1
;   applyToModels,buckleCatches_fixed,buckleFemale_fixed,buckleMale_fixed
;   profileName,PrinterBot Simple Metal Custom (modified)
;   profileVersion,2015-05-01 08:00:00
;   baseProfile,Default (modified)
;   printMaterial,PLA
;   printQuality,Medium
;   printExtruders,
;   extruderName,Primary Extruder
;   extruderToolheadNumber,0
;   extruderDiameter,0.4
;   extruderAutoWidth,0
;   extruderWidth,0.4
;   extrusionMultiplier,1
;   extruderUseRetract,1
;   extruderRetractionDistance,1.5
;   extruderExtraRestartDistance,0
;   extruderRetractionZLift,0
;   extruderRetractionSpeed,1800
;   extruderUseCoasting,0
;   extruderCoastingDistance,0.2
;   extruderUseWipe,0
;   extruderWipeDistance,5
;   primaryExtruder,0
;   layerHeight,0.2
;   topSolidLayers,3
;   bottomSolidLayers,3
;   perimeterOutlines,2
;   printPerimetersInsideOut,1
;   startPointOption,2
;   startPointOriginX,0
;   startPointOriginY,0
;   startPointOriginZ,300
;   sequentialIslands,0
;   spiralVaseMode,0
;   firstLayerHeightPercentage,70
;   firstLayerWidthPercentage,100
;   firstLayerUnderspeed,0.5
;   useRaft,0
;   raftExtruder,0
;   raftLayers,3
;   raftOffset,3
;   raftSeparationDistance,0.14
;   raftInfill,85
;   disableRaftBaseLayers,0
;   useSkirt,1
;   skirtExtruder,0
;   skirtLayers,1
;   skirtOutlines,5
;   skirtOffset,4
;   usePrimePillar,0
;   primePillarExtruder,999
;   primePillarWidth,12
;   primePillarLocation,7
;   primePillarSpeedMultiplier,1
;   useOozeShield,0
;   oozeShieldExtruder,999
;   oozeShieldOffset,2
;   oozeShieldOutlines,1
;   oozeShieldSidewallShape,1
;   oozeShieldSidewallAngle,30
;   oozeShieldSpeedMultiplier,1
;   infillExtruder,0
;   internalInfillPattern,Rectilinear
;   externalInfillPattern,Rectilinear
;   infillPercentage,20
;   outlineOverlapPercentage,15
;   infillExtrusionWidthPercentage,100
;   minInfillLength,5
;   infillLayerInterval,1
;   infillAngles,45,-45
;   overlapInfillAngles,0
;   generateSupport,1
;   supportExtruder,0
;   supportInfillPercentage,30
;   supportExtraInflation,0.4
;   denseSupportLayers,0
;   denseSupportInfillPercentage,70
;   supportLayerInterval,1
;   supportHorizontalPartOffset,0.3
;   supportUpperSeparationLayers,1
;   supportLowerSeparationLayers,1
;   supportType,0
;   supportGridSpacing,4
;   maxOverhangAngle,45
;   supportAngles,0
;   temperatureName,Primary Extruder,Heated Bed
;   temperatureNumber,0,1
;   temperatureSetpointCount,2,3
;   temperatureSetpointLayers,1,2,1,2,3
;   temperatureSetpointTemperatures,210,200,70,65,63
;   temperatureStabilizeAtStartup,1,1
;   temperatureHeatedBed,0,1
;   temperatureRelayBetweenLayers,0,0
;   temperatureRelayBetweenLoops,0,0
;   fanLayers,1,2
;   fanSpeeds,0,100
;   blipFanToFullPower,1
;   adjustSpeedForCooling,1
;   minSpeedLayerTime,15
;   minCoolingSpeedSlowdown,20
;   increaseFanForCooling,0
;   minFanLayerTime,45
;   maxCoolingFanSpeed,100
;   increaseFanForBridging,0
;   bridgingFanSpeed,100
;   use5D,1
;   relativeEdistances,0
;   allowEaxisZeroing,1
;   independentExtruderAxes,0
;   includeM10123,0
;   stickySupport,1
;   applyToolheadOffsets,0
;   gcodeXoffset,0
;   gcodeYoffset,0
;   gcodeZoffset,0
;   overrideMachineDefinition,1
;   machineTypeOverride,0
;   strokeXoverride,150
;   strokeYoverride,150
;   strokeZoverride,150
;   originOffsetXoverride,0
;   originOffsetYoverride,0
;   originOffsetZoverride,0
;   homeXdirOverride,-1
;   homeYdirOverride,-1
;   homeZdirOverride,-1
;   flipXoverride,1
;   flipYoverride,-1
;   flipZoverride,1
;   toolheadOffsets,0,0|0,0|0,0|0,0|0,0|0,0
;   overrideFirmwareConfiguration,1
;   firmwareTypeOverride,RepRap (Marlin/Repetier/Sprinter)
;   GPXconfigOverride,r2
;   baudRateOverride,250000
;   overridePrinterModels,1
;   printerModelsOverride
;   startingGcode,G28 X0 Y0 ; home X and Y axes,G29 ; probe z
;   layerChangeGcode,
;   retractionGcode,
;   toolChangeGcode,
;   endingGcode,M104 S0 T0 ; turn off extruder,M140 S0 T1 ; turn off bed,G28 X0 Y0 ; home,M84 ; disable motors
;   createX3G,0
;   celebration,0
;   celebrationSong,Random Song
;   createMB5G,0
;   postProcessing,
;   defaultSpeed,2700
;   outlineUnderspeed,0.8
;   solidInfillUnderspeed,0.8
;   supportUnderspeed,0.8
;   rapidXYspeed,4200
;   rapidZspeed,1002
;   minBridgingArea,50
;   bridgingExtraInflation,0
;   bridgingExtrusionMultiplier,1
;   bridgingSpeedMultiplier,1
;   filamentDiameter,1.75
;   filamentPricePerKg,22
;   filamentDensity,1.25
;   useMinPrintHeight,0
;   minPrintHeight,0
;   useMaxPrintHeight,0
;   maxPrintHeight,0
;   useDiaphragm,0
;   diaphragmLayerInterval,20
;   robustSlicing,1
;   mergeAllIntoSolid,0
;   onlyRetractWhenCrossingOutline,1
;   retractBetweenLayers,1
;   useRetractionMinTravel,0
;   retractionMinTravel,3
;   retractWhileWiping,0
;   onlyWipeOutlines,1
;   avoidCrossingOutline,0
;   maxMovementDetourFactor,3
;   toolChangeRetractionDistance,12
;   toolChangeExtraRestartDistance,-0.5
;   toolChangeRetractionSpeed,600
;   allowThinWallGapFill,1
;   thinWallAllowedOverlapPercentage,10
;   horizontalSizeCompensation,0
G90
M82
M106 S0
M140 S70
M190 S70
M104 S210 T0
M109 S210 T0
G28 X0 Y0 ; home X and Y axes
G29 ; probe z
G92 E0
G1 E-1.5000 F1800
G1 Z0.140 F1002
; layer 1, Z = 0.14
T0
; tool H0.200 W0.400
; skirt
G1 X8.582 Y9.548 F4200
G1 E0.0000 F540
G92 E0
G1 X9.243 Y9.274 E0.0238 F1350
G1 X19.163 Y9.274 E0.3537
G1 X19.251 Y9.237 E0.3569
G1 X30.478 Y9.237 E0.7303
G1 X31.140 Y9.511 E0.7542
G1 X32.538 Y10.909 E0.8199
G1 X32.635 Y10.837 E0.8239
G1 X32.679 Y10.806 E0.8257
G1 X32.926 Y10.646 E0.8355
G1 X32.972 Y10.617 E0.8373
G1 X33.536 Y10.297 E0.8589
G1 X33.612 Y10.258 E0.8617
G1 X34.039 Y10.066 E0.8773
G1 X34.119 Y10.035 E0.8802
G1 X35.412 Y9.598 E0.9255
G1 X35.625 Y9.553 E0.9328
G1 X36.809 Y9.452 E0.9723
G1 X37.026 Y9.460 E0.9796
G1 X38.232 Y9.650 E1.0202
G1 X38.346 Y9.676 E1.0240
G1 X38.958 Y9.856 E1.0452
G1 X39.067 Y9.897 E1.0491
G1 X40.124 Y10.364 E1.0876
G1 X40.282 Y10.454 E1.0936
G1 X41.089 Y11.028 E1.1265
G1 X41.226 Y11.147 E1.1326
G1 X41.992 Y11.967 E1.1699
G1 X42.033 Y12.015 E1.1720
G1 X42.250 Y12.283 E1.1835
G1 X42.288 Y12.333 E1.1856
G1 X42.827 Y13.103 E1.2168
G1 X42.842 Y13.126 E1.2178
G1 X42.925 Y13.252 E1.2228
G1 X42.940 Y13.275 E1.2237
G1 X43.405 Y14.036 E1.2533
G1 X43.434 Y14.087 E1.2553
G1 X43.582 Y14.368 E1.2658
G1 X43.607 Y14.421 E1.2678
G1 X44.007 Y15.317 E1.3004
G1 X44.028 Y15.369 E1.3023
G1 X44.136 Y15.659 E1.3126
G1 X44.154 Y15.712 E1.3145
G1 X44.438 Y16.653 E1.3471
G1 X44.453 Y16.708 E1.3490
G1 X44.525 Y17.014 E1.3595
G1 X44.536 Y17.071 E1.3614
G1 X44.697 Y18.039 E1.3941
G1 X44.705 Y18.095 E1.3959
G1 X44.736 Y18.403 E1.4062
G1 X44.740 Y18.460 E1.4081
G1 X44.778 Y19.439 E1.4407
G1 X44.779 Y19.497 E1.4427
G1 X44.771 Y19.812 E1.4531
G1 X44.768 Y19.870 E1.4551
G1 X44.679 Y20.851 E1.4878
G1 X44.672 Y20.908 E1.4897
G1 X44.625 Y21.217 E1.5001
G1 X44.614 Y21.274 E1.5021
G1 X44.403 Y22.230 E1.5346
G1 X44.389 Y22.286 E1.5365
G1 X44.302 Y22.585 E1.5469
G1 X44.285 Y22.640 E1.5488
G1 X43.954 Y23.561 E1.5814
G1 X43.933 Y23.614 E1.5833
G1 X43.811 Y23.897 E1.5935
G1 X43.787 Y23.949 E1.5954
G1 X43.342 Y24.824 E1.6281
G1 X43.314 Y24.874 E1.6300
G1 X43.155 Y25.143 E1.6404
G1 X43.124 Y25.192 E1.6423
G1 X42.570 Y26.005 E1.6750
G1 X42.536 Y26.052 E1.6770
G1 X42.339 Y26.304 E1.6876
G1 X42.301 Y26.349 E1.6895
G1 X41.647 Y27.083 E1.7222
G1 X41.609 Y27.123 E1.7241
G1 X41.391 Y27.338 E1.7343
G1 X41.350 Y27.377 E1.7361
G1 X40.654 Y27.984 E1.7669
G1 X40.625 Y28.009 E1.7681
G1 X40.465 Y28.137 E1.7749
G1 X40.436 Y28.159 E1.7762
G1 X39.622 Y28.758 E1.8098
G1 X39.606 Y28.770 E1.8104
G1 X39.518 Y28.831 E1.8140
G1 X39.501 Y28.843 E1.8147
G1 X38.607 Y29.442 E1.8505
G1 X39.071 Y29.740 E1.8688
G1 X39.090 Y29.753 E1.8696
G1 X39.197 Y29.826 E1.8739
G1 X39.217 Y29.840 E1.8747
G1 X40.402 Y30.694 E1.9233
G1 X40.435 Y30.719 E1.9247
G1 X40.613 Y30.861 E1.9322
G1 X40.645 Y30.888 E1.9336
G1 X41.350 Y31.503 E1.9648
G1 X41.391 Y31.541 E1.9666
G1 X41.609 Y31.756 E1.9768
G1 X41.647 Y31.797 E1.9787
G1 X42.301 Y32.530 E2.0113
G1 X42.339 Y32.575 E2.0133
G1 X42.536 Y32.827 E2.0239
G1 X42.570 Y32.874 E2.0259
G1 X43.123 Y33.686 E2.0585
G1 X43.154 Y33.734 E2.0604
G1 X43.312 Y34.001 E2.0707
G1 X43.339 Y34.051 E2.0726
G1 X43.784 Y34.923 E2.1052
G1 X43.809 Y34.975 E2.1071
G1 X43.932 Y35.261 E2.1175
G1 X43.953 Y35.314 E2.1194
G1 X44.285 Y36.239 E2.1520
G1 X44.303 Y36.293 E2.1540
G1 X44.389 Y36.594 E2.1644
G1 X44.403 Y36.650 E2.1663
G1 X44.615 Y37.609 E2.1989
G1 X44.625 Y37.665 E2.2008
G1 X44.673 Y37.973 E2.2112
G1 X44.680 Y38.030 E2.2131
G1 X44.768 Y39.010 E2.2458
G1 X44.771 Y39.067 E2.2478
G1 X44.779 Y39.382 E2.2582
G1 X44.778 Y39.440 E2.2601
G1 X44.740 Y40.420 E2.2928
G1 X44.736 Y40.477 E2.2947
G1 X44.705 Y40.784 E2.3049
G1 X44.697 Y40.841 E2.3068
G1 X44.536 Y41.808 E2.3395
G1 X44.525 Y41.865 E2.3414
G1 X44.453 Y42.171 E2.3518
G1 X44.438 Y42.227 E2.3538
G1 X44.154 Y43.167 E2.3864
G1 X44.136 Y43.221 E2.3883
G1 X44.028 Y43.510 E2.3986
G1 X44.007 Y43.563 E2.4005
G1 X43.607 Y44.459 E2.4331
G1 X43.582 Y44.511 E2.4350
G1 X43.434 Y44.793 E2.4456
G1 X43.405 Y44.843 E2.4476
G1 X42.940 Y45.604 E2.4772
G1 X42.925 Y45.627 E2.4781
G1 X42.842 Y45.753 E2.4831
G1 X42.827 Y45.776 E2.4841
G1 X42.288 Y46.546 E2.5153
G1 X42.250 Y46.597 E2.5174
G1 X42.033 Y46.864 E2.5289
G1 X41.992 Y46.912 E2.5310
G1 X41.276 Y47.679 E2.5659
G1 X41.161 Y47.783 E2.5710
G1 X40.487 Y48.292 E2.5991
G1 X40.355 Y48.375 E2.6043
G1 X39.472 Y48.830 E2.6373
G1 X39.357 Y48.879 E2.6415
G1 X38.708 Y49.105 E2.6644
G1 X38.586 Y49.138 E2.6686
G1 X37.205 Y49.412 E2.7154
G1 X36.971 Y49.427 E2.7232
G1 X35.688 Y49.343 E2.7660
G1 X35.457 Y49.297 E2.7738
G1 X34.049 Y48.821 E2.8232
G1 X33.944 Y48.778 E2.8270
G1 X33.390 Y48.509 E2.8475
G1 X33.292 Y48.453 E2.8512
G1 X32.321 Y47.820 E2.8898
G1 X32.228 Y47.751 E2.8937
G1 X32.166 Y47.698 E2.8963
G1 X31.140 Y48.724 E2.9446
G1 X30.478 Y48.998 E2.9684
G1 X22.724 Y48.998 E3.2263
G1 X21.135 Y50.588 E3.3011
G1 X20.473 Y50.862 E3.3249
G1 X9.243 Y50.862 E3.6984
G1 X8.582 Y50.588 E3.7222
G1 X5.732 Y47.738 E3.8563
G1 X5.458 Y47.077 E3.8801
G1 X5.458 Y13.059 E5.0115
G1 X5.732 Y12.397 E5.0354
G1 X8.582 Y9.548 E5.1694
G1 X8.808 Y9.887 F4200
G92 E0
G1 X9.323 Y9.674 E0.0185 F1350
G1 X19.242 Y9.674 E0.3484
G1 X19.330 Y9.637 E0.3516
G1 X30.399 Y9.637 E0.7198
G1 X30.913 Y9.850 E0.7383
G1 X32.499 Y11.436 E0.8129
G1 X32.868 Y11.162 E0.8281
G1 X32.903 Y11.138 E0.8295
G1 X33.139 Y10.984 E0.8389
G1 X33.175 Y10.962 E0.8403
G1 X33.725 Y10.649 E0.8614
G1 X33.785 Y10.619 E0.8636
G1 X34.194 Y10.435 E0.8785
G1 X34.256 Y10.411 E0.8808
G1 X35.517 Y9.984 E0.9250
G1 X35.683 Y9.950 E0.9306
G1 X36.819 Y9.853 E0.9686
G1 X36.988 Y9.859 E0.9742
G1 X38.157 Y10.043 E1.0136
G1 X38.246 Y10.063 E1.0166
G1 X38.832 Y10.236 E1.0369
G1 X38.918 Y10.268 E1.0399
G1 X39.944 Y10.721 E1.0773
G1 X40.066 Y10.791 E1.0820
G1 X40.841 Y11.342 E1.1136
G1 X40.947 Y11.435 E1.1183
G1 X41.694 Y12.235 E1.1547
G1 X41.727 Y12.272 E1.1563
G1 X41.935 Y12.529 E1.1673
G1 X41.964 Y12.569 E1.1690
G1 X42.497 Y13.330 E1.1999
G1 X42.509 Y13.348 E1.2006
G1 X42.589 Y13.469 E1.2054
G1 X42.600 Y13.487 E1.2061
G1 X43.060 Y14.239 E1.2354
G1 X43.083 Y14.279 E1.2370
G1 X43.225 Y14.549 E1.2471
G1 X43.245 Y14.589 E1.2486
G1 X43.639 Y15.474 E1.2808
G1 X43.656 Y15.515 E1.2823
G1 X43.759 Y15.792 E1.2921
G1 X43.773 Y15.834 E1.2936
G1 X44.054 Y16.762 E1.3258
G1 X44.065 Y16.805 E1.3273
G1 X44.134 Y17.099 E1.3374
G1 X44.142 Y17.143 E1.3389
G1 X44.302 Y18.098 E1.3711
G1 X44.308 Y18.142 E1.3725
G1 X44.338 Y18.437 E1.3824
G1 X44.341 Y18.481 E1.3839
G1 X44.379 Y19.449 E1.4161
G1 X44.379 Y19.494 E1.4176
G1 X44.371 Y19.796 E1.4276
G1 X44.369 Y19.840 E1.4291
G1 X44.282 Y20.808 E1.4614
G1 X44.276 Y20.853 E1.4629
G1 X44.230 Y21.150 E1.4729
G1 X44.222 Y21.194 E1.4744
G1 X44.014 Y22.138 E1.5066
G1 X44.003 Y22.181 E1.5080
G1 X43.920 Y22.468 E1.5180
G1 X43.906 Y22.511 E1.5195
G1 X43.580 Y23.420 E1.5516
G1 X43.563 Y23.461 E1.5531
G1 X43.446 Y23.733 E1.5629
G1 X43.427 Y23.773 E1.5644
G1 X42.988 Y24.637 E1.5966
G1 X42.967 Y24.676 E1.5981
G1 X42.814 Y24.934 E1.6081
G1 X42.790 Y24.972 E1.6096
G1 X42.243 Y25.774 E1.6419
G1 X42.217 Y25.811 E1.6434
G1 X42.028 Y26.053 E1.6536
G1 X41.999 Y26.088 E1.6551
G1 X41.353 Y26.812 E1.6874
G1 X41.323 Y26.843 E1.6888
G1 X41.114 Y27.050 E1.6986
G1 X41.082 Y27.079 E1.7000
G1 X40.394 Y27.680 E1.7304
G1 X40.372 Y27.699 E1.7314
G1 X40.218 Y27.822 E1.7379
G1 X40.195 Y27.840 E1.7389
G1 X39.387 Y28.434 E1.7723
G1 X39.374 Y28.443 E1.7728
G1 X39.290 Y28.503 E1.7762
G1 X39.277 Y28.512 E1.7767
G1 X38.122 Y29.285 E1.8230
G1 X38.108 Y29.294 E1.8235
G1 X38.015 Y29.353 E1.8272
G1 X38.001 Y29.362 E1.8277
G1 X37.869 Y29.442 E1.8329
G1 X38.852 Y30.075 E1.8718
G1 X38.867 Y30.085 E1.8724
G1 X38.970 Y30.155 E1.8765
G1 X38.985 Y30.166 E1.8771
G1 X40.164 Y31.016 E1.9255
G1 X40.190 Y31.035 E1.9265
G1 X40.361 Y31.171 E1.9338
G1 X40.386 Y31.192 E1.9349
G1 X41.082 Y31.800 E1.9656
G1 X41.114 Y31.830 E1.9671
G1 X41.323 Y32.036 E1.9768
G1 X41.353 Y32.068 E1.9783
G1 X41.999 Y32.792 E2.0106
G1 X42.028 Y32.827 E2.0121
G1 X42.217 Y33.068 E2.0223
G1 X42.243 Y33.105 E2.0238
G1 X42.789 Y33.906 E2.0560
G1 X42.813 Y33.944 E2.0575
G1 X42.964 Y34.199 E2.0674
G1 X42.986 Y34.238 E2.0689
G1 X43.425 Y35.099 E2.1010
G1 X43.444 Y35.140 E2.1025
G1 X43.563 Y35.414 E2.1124
G1 X43.579 Y35.456 E2.1139
G1 X43.906 Y36.368 E2.1462
G1 X43.920 Y36.410 E2.1476
G1 X44.003 Y36.699 E2.1576
G1 X44.014 Y36.742 E2.1591
G1 X44.223 Y37.689 E2.1914
G1 X44.231 Y37.732 E2.1928
G1 X44.276 Y38.028 E2.2028
G1 X44.282 Y38.072 E2.2042
G1 X44.369 Y39.039 E2.2365
G1 X44.371 Y39.084 E2.2380
G1 X44.379 Y39.386 E2.2481
G1 X44.379 Y39.431 E2.2496
G1 X44.341 Y40.398 E2.2818
G1 X44.338 Y40.442 E2.2833
G1 X44.308 Y40.737 E2.2931
G1 X44.302 Y40.781 E2.2946
G1 X44.142 Y41.736 E2.3268
G1 X44.134 Y41.780 E2.3283
G1 X44.065 Y42.074 E2.3383
G1 X44.054 Y42.117 E2.3398
G1 X43.773 Y43.045 E2.3721
G1 X43.759 Y43.087 E2.3735
G1 X43.656 Y43.365 E2.3834
G1 X43.639 Y43.406 E2.3848
G1 X43.245 Y44.290 E2.4171
G1 X43.225 Y44.331 E2.4186
G1 X43.083 Y44.601 E2.4287
G1 X43.060 Y44.640 E2.4302
G1 X42.600 Y45.393 E2.4596
G1 X42.589 Y45.411 E2.4603
G1 X42.509 Y45.531 E2.4651
G1 X42.497 Y45.549 E2.4658
G1 X41.964 Y46.311 E2.4967
G1 X41.935 Y46.350 E2.4983
G1 X41.727 Y46.607 E2.5093
G1 X41.694 Y46.644 E2.5110
G1 X40.995 Y47.393 E2.5451
G1 X40.905 Y47.474 E2.5491
G1 X40.259 Y47.963 E2.5760
G1 X40.157 Y48.027 E2.5800
G1 X39.302 Y48.468 E2.6120
G1 X39.212 Y48.506 E2.6153
G1 X38.590 Y48.723 E2.6372
G1 X38.495 Y48.749 E2.6405
G1 X37.153 Y49.015 E2.6860
G1 X36.971 Y49.026 E2.6920
G1 X35.740 Y48.946 E2.7331
G1 X35.561 Y48.910 E2.7391
G1 X34.189 Y48.446 E2.7873
G1 X34.108 Y48.412 E2.7902
G1 X33.576 Y48.154 E2.8099
G1 X33.500 Y48.111 E2.8128
G1 X32.550 Y47.492 E2.8505
G1 X32.478 Y47.438 E2.8535
G1 X32.145 Y47.154 E2.8681
G1 X30.913 Y48.385 E2.9260
G1 X30.399 Y48.598 E2.9445
G1 X22.558 Y48.598 E3.2053
G1 X20.908 Y50.249 E3.2829
G1 X20.393 Y50.462 E3.3014
G1 X9.323 Y50.462 E3.6697
G1 X8.808 Y50.249 E3.6882
G1 X6.071 Y47.512 E3.8169
G1 X5.858 Y46.997 E3.8354
G1 X5.858 Y13.138 E4.9616
G1 X6.071 Y12.624 E4.9801
G1 X8.808 Y9.887 E5.1089
G1 X9.035 Y10.226 F4200
G92 E0
G1 X9.402 Y10.074 E0.0132 F1350
G1 X19.322 Y10.074 E0.3432
G1 X19.410 Y10.037 E0.3463
G1 X30.319 Y10.037 E0.7092
G1 X30.687 Y10.189 E0.7224
G1 X32.470 Y11.973 E0.8063
G1 X32.559 Y11.892 E0.8103
G1 X32.598 Y11.861 E0.8119
G1 X33.101 Y11.487 E0.8328
G1 X33.126 Y11.470 E0.8338
G1 X33.353 Y11.323 E0.8428
G1 X33.378 Y11.307 E0.8438
G1 X33.915 Y11.002 E0.8643
G1 X33.957 Y10.980 E0.8659
G1 X34.349 Y10.804 E0.8802
G1 X34.394 Y10.787 E0.8818
G1 X35.622 Y10.371 E0.9249
G1 X35.741 Y10.346 E0.9289
G1 X36.829 Y10.253 E0.9653
G1 X36.949 Y10.258 E0.9693
G1 X38.082 Y10.437 E1.0074
G1 X38.145 Y10.451 E1.0096
G1 X38.707 Y10.616 E1.0290
G1 X38.768 Y10.639 E1.0312
G1 X39.763 Y11.079 E1.0674
G1 X39.851 Y11.129 E1.0708
G1 X40.593 Y11.656 E1.1010
G1 X40.669 Y11.723 E1.1044
G1 X41.397 Y12.503 E1.1399
G1 X41.420 Y12.530 E1.1411
G1 X41.620 Y12.775 E1.1516
